X: 10792
M: 6/8
L: 1/8
K: Bb
d/e/ |\
f3 f3 | f3 fga | bfe dcB | AcB AGF |\
f3 f3 | f3 fga | bfe dcB | f3 fge |]
d3 cBc | B3 Bcd | e3 dcd | c3 cde |\
(f2.d) (g2.e) | (f2.d) (g2.e) | fgf fed | (d3 c).B.c |]
d3 cBc | B2B Bcd | e2e dcd | c2c cde |\
(f2.d) (g2.e) | (f2.d) (g2.e) | ded cBA | Bgf ed"^D.C."c |]


